X: 16
T: Praeludia organi op. 5 – Moderato
C: Franciszek Walczyński
%%abc-version 2.0
%%abcx-abcm2ps-target-version 5.9.1 (29 Sep 2008)
%%abc-creator hum2abc beta
%%abcx-conversion-date 2021/10/04 07:38:39
%%abc-edited-by Andrzej Borzym
%%abc-edited-by Krzysztof Stępień
%%abcx-initial-encoding-date 2021-07-26
%%humdrum-veritas 2153099141
%%humdrum-veritas-data 201294910
%%linebreak <none>
%%barnumbers 0
L: 1/8
M: 3/4
N: Derived from pl-kozmzk--mzk-m-159--005_walczynski-franciszek--praeludia-organi-op-5-moderato.krn
Q: "5. Moderato"
%%staves {1 2}
V: 1 clef=treble
V: 2 clef=bass
K: D
[V:1] z6 & z6 | 
[V:2] z6 & D,2F,2A,2 | 
[V:1] z6 & z6 | 
[V:2] z6 & B,2>A,2G,F, | 
[V:1] z6 & z6 | 
[V:2] z6 & G,E,2<A,2G, | 
[V:1] z6 & z6 | 
[V:2] z6 & F,G,F,E,F,^G, | 
[V:1] z6 & z6 | 
[V:2] A,2C2E2 & A,4C,2 | 
[V:1] z6 & z6 | 
[V:2] F2>E2DC & D,^A,,B,,C,B,,=A,, | 
[V:1] z6 & z6 | 
[V:2] DB,2<E2D & ^G,,F,,G,,E,,F,,G,, | 
[V:1] z6 & z6 | 
[V:2] CDCB,A,=G, & A,,2>B,,2C,2 | 
[V:1] z6 & D2F2A2 | 
[V:2] F,2A,2F,2 & D,6 | 
[V:1] z6 & B2>A2GF | 
[V:2] D,E,F,2B,2 & B,,C,D,2^D,2 | 
[V:1] z6 & GE2<A2G | 
[V:2] G,A,/B,/ C^B,CA, & E,F,/G,/ E,^D,E,C, | 
[V:1] z6 & FGFEF^G | 
[V:2] DB,A,G,A,B, & =D,6 | 
[V:1] A2c2e2 & A6- | 
[V:2] A,2E2C2 & C,2z2z2 | 
[V:1] f2>e2dc & A6 | 
[V:2] DA,B,CFE & z6 | 
[V:1] dB2<e2d & F^G AEFG | 
[V:2] B,E/D/C2B,2 & z6 | 
[V:1] cdcBAG & ABA=GFE | 
[V:2] A,6- & z2z A,,B,,C, | 
[V:1] F2G2F2 & D6 | 
[V:2] A,2G,2A,2 & D,=C,B,,2A,,2 | 
[V:1] E2A4 & D2C4 | 
[V:2] B,_B, A,E,F,G, & G,,2A,,4 | 
[V:1] D2F2A2 & D6 | 
[V:2] F,2A,2F,2 & D,4=C,2 | 
[V:1] B2>A2GF & ^D6 | 
[V:2] F,^E,F,=CB,A, & B,,6 | 
[V:1] GE2<!accent!A2G & EC2<D2C | 
[V:2] E,A,-A,4- & E,A,/G,/ F,^E,F,=E, | 
[V:1] F2E4 & D4C2 | 
[V:2] A,2B,2A,G,- & D,F,,G,,2A,,2 | 
[V:1] !fermata!D6 & A,6 |]  
[V:2] G,2F,4 & !fermata!D,6 |]  


